X:292
T:The Skylark
R:Reel
O:Ireland
C:James Morrison
D:Noel Hill & Tony Linnane
D:Paul McGrattan: The Frost Is All Over
D:The Professor, Viva Voce (2 cassette set)
D:Tommy Basker, The Tin Sandwich
B:Ceol Rince 1
S:My arrangement from various sources
Z:Transcription, arrangement, chords:Mike Long
M:C|
L:1/8
K:D
f|\
"D"agfg "A"efdB|"D"AF~F2 DFAd|"G"BG~G2 EFGE|"D"FA~A2 FAdf|\
"D"agfg "A"efdB|
"D"AF~F2 DFAd|"G"BG~G2 Egag|"D"fa"A"eg "D"fdd:|\
|:f|\
"D"~a2fd Adfd|"A"efed cAAf|
"D"~a2fa "G"bged|"A"Beed efge|\
"D"~f2fa "G"~g2ge|"A"(3(fga) ef "G"dBAG|"D"FAdF "G"GBed|"A"ceag "D"fdd:|
